X:1
T:Bagatelle
T:Bagatelle
T:Op.119 N.3
T:Ludwig van Beethoven
C:Ludwig van Beethoven
%%score { ( 1 4 ) | ( 2 3 ) }
L:1/8
Q:1/4=120
M:3/8
K:D
V:1 treble nm="Piano" snm="Pno."
V:4 treble 
V:2 bass 
V:3 bass 
V:1
"^à l'Allemande" d' | e'/d'/c'/d'/f'/a'/ | d'' z f- | fge | fdd' | e'/d'/c'/d'/f'/a'/ | d'' z f- | %7
 fge |[M:1/4] d2 ::[M:1/8] A |[M:3/8] B/A/^G/A/c/e/ | a z g- | gec | dfA | B/A/^G/A/c/e/ | a z g- | %16
 gec | d2!dacoda! :: A | [DFAd]2 z | [DGB]2 z | [E^GBe]2 z | [CEAc]2 z | [F^Acf]2 z | [DFBd]2 z | %25
 T^g3 | aA ::[M:1/8] a |[M:3/8] g/f/e/d/c/B/ | A/^G/A/G/A/G/ | [Aeg]3 | [Adf] z a | g/f/e/d/c/B/ | %33
 A/^G/A/G/A/G/ | [Aa][Bb][cc'] |[M:1/4] [dd'] z!D.C.! :|[M:1/8]O A |[M:3/8] [DFAd]2 z | [DGB]2 z | %39
 [E^GBe]2 z | [EAc]2 z | [F^Acf]2 z | [FBd]2 z | [Adfa]2 z | [Acea]2 z | [Adfa]2 z | [Adfa]2 z | %47
 [Adea]2 z | [Acea]2 z | [Adfa]2 [Adfa] | [Adea]2 [Acea] | [Adfa]2 [Adfa] | dc [Acea] | %53
 [Adfa]2 [DFAd] | [DFAd]2[K:bass] D, | D,2[K:treble] D | D2 d | d2 d' | z z d' | %59
 e'/d'/c'/d'/f'/a'/ |[M:1/4] d''2 |] %61
V:2
 z | z3 |!ped! z3 | A,2 C |!ped! D2!ped-up! z | z3 |!ped! z3!ped-up! | A,2 C |[M:1/4] D2 :: %9
[M:1/8] z |[M:3/8] z3 |!ped! z3!ped-up! | CE[I:staff -1]G |!ped![I:staff +1] z2!ped-up! z | z3 | %15
!ped! z3!ped-up! | CE[I:staff -1]G |[I:staff +1] z2 :: z | D,,/D,/F,,/D,/A,,/D,/ | %20
 G,,/G,/B,,/G,/D,/G,/ | E,,/E,/^G,,/E,/B,,/E,/ | A,,/A,/C,/A,/E,/A,/ | F,,/F,/^A,,/F,/C,/F,/ | %24
 B,,/B,/D,/B,/F,/B,/ | E,/F,/E,/D,/C,/B,,/ | A,, z ::[M:1/8] z |[M:3/8] z3 | [EG]3 | A,B,C | %31
 DD, z | z3 | [EG]3 | [A,EG][A,DF][A,EG] |[M:1/4] [DF]D, :|[M:1/8] z | %37
[M:3/8] D,,/D,/F,,/D,/A,,/D,/ | G,,/G,/B,,/G,/D,/G,/ | E,,/E,/^G,,/E,/B,,/E,/ | %40
 A,,/A,/C,/A,/E,/A,/ | F,,/G,/^A,,/G,/C,/G,/ | B,,/B,/D,/B,/F,/B,/ | A,,/A,/D,/A,/F,/A,/ | %44
 A,,/A,/E,/A,/G,/A,/ | A,,/A,/D,/A,/F,/A,/ | A,,/A,/D,/A,/F,/A,/ | A,,/A,/D,/A,/E,/A,/ | %48
 A,,/A,/C,/A,/E,/A,/ | A,,/A,/D,/A,/F,/A,/ | A,,/A,/^G,/A,/A,,/A,/ | A,,/A,/D,/A,/F,/A,/ | %52
 A,,/B,,/A,,/G,,/F,,/E,,/ | D,,/A,,/E,,/A,,/F,,/A,,/ | D,,/A,,/E,,/A,,/F,,/A,,/ | %55
 D,,/A,,/E,,/A,,/F,,/A,,/ | D,,/A,,/E,,/A,,/F,,/A,,/ | D,,/A,,/E,,/A,,/F,,/A,,/ | z z[K:treble] d | %59
 e/d/c/d/f/a/ |[M:1/4] d'2 |] %61
V:3
 x | x3 | D,, D,2- | D,3- | D,2 z | x3 | D,, D,2- | D,3- |[M:1/4] D,2 ::[M:1/8] x |[M:3/8] x3 | %11
 A,, A,2- | A,3 | D,2 z | x3 | A,, A,2- | A,3 | D,2 :: x | x3 | x3 | x3 | x3 | x3 | x3 | x3 | x2 :: %27
[M:1/8] x |[M:3/8] x3 | x3 | x3 | x3 | x3 | x3 | x3 |[M:1/4] x2 :|[M:1/8] x |[M:3/8] x3 | x3 | x3 | %40
 x3 | x3 | x3 | x3 | x3 | x3 | x3 | x3 | x3 | x3 | x3 | x3 | x3 | x3 | x3 | x3 | x3 | x3 | %58
 x2[K:treble] x | x3 |[M:1/4] x2 |] %61
V:4
 x | x3 | x3 | G3 | F2 z | x3 | x3 | G3 |[M:1/4] F2 ::[M:1/8] x |[M:3/8] x3 | x3 | x3 | F2 z | x3 | %15
 x3 | x3 | F2 :: x | x3 | x3 | x3 | x3 | x3 | x3 | x3 | x2 ::[M:1/8] x |[M:3/8] x3 | x3 | x3 | x3 | %32
 x3 | x3 | x3 |[M:1/4] x2 :|[M:1/8] x |[M:3/8] x3 | x3 | x3 | x3 | x3 | x3 | x3 | x3 | x3 | x3 | %47
 x3 | x3 | x3 | x3 | x3 | [Aea] z2 | x3 | x2[K:bass] x | x2[K:treble] x | x3 | x3 | x3 | x3 | %60
[M:1/4] x2 |] %61

